X:1
T:Arbury Court For Eight
T:to the tune of "The Lonely Nut Polka"
C:Katy Hayes
Z:Dave Holland <dave@biff.org.uk> - unchecked!
M:4/4
L:1/8
K:Em
P:A
E2BB G2B2 | cBAc B4 | A2cA G2BG |1 F2F2 F4 :|2 F2F2 E4 ||
P:B
B2E2 c2A2 | e2c2 B4 | e^de2 c2A2 | BAG2 F4 :|
